packages/icons/src/components/Icon/assets/small-solid/leaf.svg

<svg width="16" height="16" viewBox="0 0 16 16" fill="none" xmlns="http://www.w3.org/2000/svg">
<path d="M10.5734 1C7.16841 1 4.75877 1.75489 3.19251 3.11358C1.6079 4.48819 1.00556 6.37585 1 8.36542L1 8.36752C1 8.79581 1.00109 9.49592 1.26723 10.3148C1.41665 10.0239 1.58194 9.74145 1.76411 9.46819C2.6776 8.09797 3.98864 6.99903 5.76001 6.2118C6.13853 6.04357 6.58175 6.21405 6.74997 6.59257C6.91819 6.97108 6.74771 7.4143 6.36919 7.58252C4.83175 8.2658 3.75309 9.18889 3.01219 10.3002C2.66803 10.8165 2.391 11.3821 2.17538 11.9958C2.32669 12.1882 2.49747 12.3815 2.69024 12.5743C2.83089 12.7149 3.02166 12.7939 3.22057 12.7939H5.43671C7.85263 12.7939 10.0003 12.1528 11.5878 10.5646C13.168 8.98381 14.0836 6.57357 14.2736 3.26354C14.2744 3.24923 14.2748 3.2349 14.2748 3.22057V1.75C14.2748 1.33579 13.939 1 13.5248 1H10.5734Z" fill="black"/>
<path d="M2.17685 11.9977C1.97256 12.6889 1.83373 13.4142 1.75008 14.1672C1.70434 14.5789 2.00099 14.9497 2.41267 14.9954C2.82435 15.0412 3.19516 14.7445 3.2409 14.3328C3.3008 13.7937 3.39092 13.2806 3.51376 12.7939L3.22057 12.7939C3.02166 12.7939 2.83089 12.7149 2.69024 12.5743C2.4981 12.3821 2.32779 12.1895 2.17685 11.9977Z" fill="black"/>
</svg>

<svg xmlns="http://www.w3.org/2000/svg" width="16" height="16" fill="none" viewBox="0 0 16 16">
    <path fill="#000" d="M10.573 1c-3.405 0-5.814.755-7.38 2.114C1.608 4.488 1.006 6.376 1 8.365v.003c0 .428.001 1.128.267 1.947q.224-.437.497-.847C2.678 8.098 3.99 7 5.76 6.212a.75.75 0 1 1 .61 1.37C4.831 8.267 3.752 9.19 3.011 10.3a7.6 7.6 0 0 0-.837 1.696q.227.289.515.578c.14.14.332.22.53.22h2.217c2.416 0 4.563-.641 6.15-2.23 1.581-1.58 2.497-3.99 2.687-7.3V1.75a.75.75 0 0 0-.75-.75z"/>
    <path fill="#000" d="M2.177 11.998a12.5 12.5 0 0 0-.427 2.17.75.75 0 1 0 1.49.165q.089-.809.274-1.54H3.22a.75.75 0 0 1-.53-.219 7 7 0 0 1-.514-.576"/>
</svg>
